packages/icons/src/navigation/home.svg

<svg aria-label="home" xmlns="http://www.w3.org/2000/svg" viewBox="0 0 24 24">
<path fill-rule="evenodd" clip-rule="evenodd" d="M21 13.417L21.9888 14.4046C22.1841 14.5997 22.5005 14.5995 22.6958 14.4045L23.4032 13.6974C23.5985 13.5018 23.5983 13.1852 23.4028 12.9902L12.3536 1.95364C12.1583 1.75857 11.8419 1.75866 11.6465 1.95364L0.609985 12.9901C0.414673 13.1854 0.414673 13.502 0.609985 13.6972L1.31702 14.4044C1.51233 14.5996 1.82886 14.5996 2.02417 14.4044L3 13.4285V21.0006C3 21.5529 3.44775 22.0006 4 22.0006H9C9.55225 22.0006 10 21.5529 10 21.0006V17.0001C10 15.8955 10.8954 15.0001 12 15.0001C13.1046 15.0001 14 15.8955 14 17.0001V21.0006C14 21.5529 14.4478 22.0006 15 22.0006H20C20.5522 22.0006 21 21.5529 21 21.0006V13.417ZM5 11.4285L12.0001 4.42837L19 11.4195V20.0006H16V17.0001C16 14.7909 14.2091 13.0001 12 13.0001C9.79089 13.0001 8 14.7909 8 17.0001V20.0006H5V11.4285Z" />
</svg>

<svg aria-label="home" xmlns="http://www.w3.org/2000/svg" aria-label="home icon" viewBox="0 0 24 24"><path fill-rule="evenodd" clip-rule="evenodd" d="m21 13.417.989.988a.5.5 0 0 0 .707 0l.707-.708a.5.5 0 0 0 0-.707L12.353 1.954a.5.5 0 0 0-.707 0L.61 12.99a.5.5 0 0 0 0 .707l.707.707a.5.5 0 0 0 .707 0L3 13.428v7.573a1 1 0 0 0 1 1h5a1 1 0 0 0 1-1v-4a2 2 0 1 1 4 0v4a1 1 0 0 0 1 1h5a1 1 0 0 0 1-1v-7.584zM5 11.428l7-7 7 6.991v8.582h-3v-3a4 4 0 1 0-8 0v3H5v-8.573z"/></svg>
